X:3011
L:1/8
M:2/4
K:Gmin
 g G2 B/c/ | d D2 E/F/ | GABc | d D2 z | B d2 c/B/ | A c2 B/A/ | GA/B/ cB/A/ | B G2 z2 || a2 f2 | 
 dc/d/ B2 c/d/ | edcB | f F2 z | ^f g2 a | b d2 z | c/d/e/d/ c/B/A/G/ | A D2 z | b B2 d/e/ | 
 f F2 G/A/ | Bcde | f F2 z | GBeG | FBdB | ba/g/ f/e/d/c/ | d B2 z ||

